X:1
T: the Maid at the Well
T: the Maids of Glenroe
T: the Silver Tip
T: the Christmas Jig
S: Philippe Varlet  irtrad-l 1000-02-02
M: 6/8
L:1/8
K:G
|: GDD EDD | GAB c2d | edc BcA | BGE EDE \
|  GDD EDD | GAB c2d | edc BcA | AGF G3 :|
|: gdd edd | gdB c2d | edc BcA | BGE EED \
|  gdd edd | gdB c2d | edc BcA | AGF G3 :|
